img/foods.svg

<svg width="27" height="32" viewBox="0 0 27 32" fill="none" xmlns="http://www.w3.org/2000/svg">
<path d="M6.56502 0C6.26956 0 6.04902 0.238377 6.03169 0.533342V8.62814C6.56793 8.82165 6.9838 9.29421 7.07753 9.87918C7.08125 9.89954 7.29409 11.0933 8.16502 12.35V0.533342C8.16502 0.237873 7.92716 0 7.63169 0H6.56502ZM19.365 0C19.0696 0 18.849 0.238377 18.8317 0.533342V12.3448C19.708 11.078 19.9223 9.86873 19.9223 9.86873C20.0193 9.28922 20.4326 8.82078 20.965 8.62814V0.533342C20.965 0.237873 20.7272 0 20.4317 0H19.365ZM9.76502 2.13337C9.46956 2.13337 9.23169 2.3712 9.23169 2.66665V13.5511C9.77778 14.0255 10.4585 14.4281 11.365 14.6729V2.66665C11.365 2.3712 11.1272 2.13337 10.8317 2.13337H9.76502ZM16.165 2.13337C15.8696 2.13337 15.6317 2.3712 15.6317 2.66665V14.6729C16.5385 14.4277 17.2191 14.024 17.765 13.549V2.66665C17.765 2.3712 17.5272 2.13337 17.2317 2.13337H16.165ZM3.36502 4.26667C3.06956 4.26667 2.83169 4.50454 2.83169 4.80001V8.5323H4.96502V4.80001C4.96502 4.50454 4.72716 4.26667 4.43169 4.26667H3.36502ZM12.965 4.26667C12.6696 4.26667 12.4317 4.50454 12.4317 4.80001V14.875C12.7626 14.9125 13.1169 14.9333 13.4973 14.9333C13.8789 14.9333 14.2332 14.9127 14.565 14.875V4.80001C14.565 4.50454 14.3272 4.26667 14.0317 4.26667H12.965ZM22.565 4.26667C22.2696 4.26667 22.0317 4.50454 22.0317 4.80001V8.5323H24.165V4.80001C24.165 4.50454 23.9272 4.26667 23.6317 4.26667H22.565ZM0.698357 9.59898C0.377248 9.60011 0.129914 9.88259 0.171275 10.201L2.8369 30.4646C2.93124 31.2584 3.55098 32 4.43065 32H22.565C23.4425 32 24.0618 31.2601 24.1588 30.4688L26.8286 10.201C26.8701 9.88093 26.6201 9.59759 26.2973 9.59898H21.4984C21.2374 9.60031 21.0157 9.79025 20.9744 10.0479C20.9744 10.0479 20.7222 11.5286 19.6629 13.0239C18.6037 14.5193 16.8009 16 13.4984 16C10.1958 16 8.39195 14.5193 7.33273 13.0239C6.27354 11.5286 6.02544 10.0479 6.02544 10.0479C5.98395 9.78906 5.76051 9.59878 5.49836 9.59898H0.698357ZM13.4984 19.7344C15.8485 19.7344 17.765 21.6478 17.765 23.9979C17.765 26.348 15.8485 28.2656 13.4984 28.2656C11.1482 28.2656 9.22961 26.348 9.22961 23.9979C9.22961 21.6478 11.1482 19.7344 13.4984 19.7344Z" fill="#FF7010"/>
</svg>

<svg width="27" height="32" fill="none" xmlns="http://www.w3.org/2000/svg"><path d="M6.565 0c-.295 0-.516.238-.533.533v8.095c.536.194.952.666 1.046 1.251.003.02.216 1.214 1.087 2.471V.533A.532.532 0 0 0 7.632 0H6.565Zm12.8 0c-.295 0-.516.238-.533.533v11.812c.876-1.267 1.09-2.476 1.09-2.476.097-.58.51-1.048 1.043-1.24V.532A.532.532 0 0 0 20.432 0h-1.067Zm-9.6 2.133a.532.532 0 0 0-.533.534V13.55a5.268 5.268 0 0 0 2.133 1.122V2.667a.532.532 0 0 0-.533-.534H9.765Zm6.4 0a.532.532 0 0 0-.533.534v12.006a5.264 5.264 0 0 0 2.133-1.124V2.667a.532.532 0 0 0-.533-.534h-1.067Zm-12.8 2.134a.532.532 0 0 0-.533.533v3.732h2.133V4.8a.532.532 0 0 0-.533-.533H3.365Zm9.6 0a.532.532 0 0 0-.533.533v10.075c.33.037.685.058 1.065.058.382 0 .736-.02 1.068-.058V4.8a.532.532 0 0 0-.533-.533h-1.067Zm9.6 0a.532.532 0 0 0-.533.533v3.732h2.133V4.8a.532.532 0 0 0-.533-.533h-1.067ZM.698 9.599a.533.533 0 0 0-.527.602l2.666 20.264C2.93 31.258 3.55 32 4.43 32h18.134c.877 0 1.497-.74 1.594-1.531l2.67-20.268a.533.533 0 0 0-.532-.602h-4.799a.533.533 0 0 0-.524.449s-.252 1.48-1.311 2.976C18.603 14.519 16.8 16 13.498 16c-3.302 0-5.106-1.48-6.165-2.976-1.06-1.495-1.308-2.976-1.308-2.976a.533.533 0 0 0-.527-.449h-4.8Zm12.8 10.135a4.272 4.272 0 0 1 4.267 4.264 4.276 4.276 0 0 1-4.267 4.268 4.277 4.277 0 0 1-4.268-4.268 4.274 4.274 0 0 1 4.268-4.264Z" fill="#FF7010"/></svg>
